X:15218
T:Sergeant Early's Dream
T:Sgt. Early's Dream
R:reel
Z:id:hn-reel-455
M:C|
K:Ddor
cB|ADDE FAcA|GECD ~E3F|DA,DE FEFG|Adde fedc|
ADDE FAcA|GECD ~E3F|DA,DE FAcA|GFEF D2:|
|:dc|Addc ~d3e|f2ed cAGF|ECEG ~c3d|ecdc AcGc|
Addc ~d3e|f2ed cAGc|AE~E2 cE~E2|CDEC D2:|
